packages/icons/src/helix.svg

<svg viewBox="0 0 32 32" fill="none" xmlns="http://www.w3.org/2000/svg">
<path d="M4.98834 11.2885C5.20655 10.6706 5.45748 10.0765 5.75207 9.51801C5.46839 9.23282 4.7592 8.62681 4.80284 8.57928C8.5015 3.75492 13.3239 2.30524 17.59 3.14891C18.4628 3.27962 19.3356 3.50538 20.1976 3.84998C26.3075 6.32157 29.3951 13.6532 27.1039 20.2362C26.8748 20.8897 26.5911 21.5195 26.2856 22.1018C26.6239 22.4226 27.3658 23.0167 27.3221 23.0643C23.2198 28.352 17.7536 29.5759 13.2039 28.1025C12.7675 27.9837 12.3311 27.8411 11.8947 27.6747C5.7957 25.2031 2.69713 17.8715 4.98834 11.2885ZM25.8274 0C25.0528 0.808021 24.1254 1.7824 23.6671 2.22206C22.947 1.7824 22.1724 1.37839 21.365 1.05756C14.4259 -1.74675 7.11588 1.42592 3.0899 7.3316C0.984173 10.7182 -0.259634 14.889 0.0458598 19.1786C0.0458598 19.1786 0.0567857 27.2469 6.89767 32C7.45411 31.1682 8.16329 30.0988 8.63244 29.4096C9.39618 29.8849 10.2036 30.3127 11.0546 30.6573C18.9101 33.8299 27.6167 29.778 30.4644 21.6146C30.4644 21.6146 32.5483 16.6357 31.8609 11.1935C31.8609 11.1935 31.3263 3.84998 25.8274 0Z" fill="black"/>
</svg>

<svg xmlns="http://www.w3.org/2000/svg" fill="none" viewBox="0 0 32 32"><path fill="#000" d="M4.988 11.289c.219-.618.47-1.213.764-1.771-.284-.285-.993-.891-.95-.939 3.7-4.824 8.522-6.274 12.788-5.43.873.13 1.746.356 2.608.701 6.11 2.472 9.197 9.803 6.906 16.386-.23.654-.513 1.284-.818 1.866.338.32 1.08.915 1.036.962-4.102 5.288-9.568 6.512-14.118 5.038a13.983 13.983 0 0 1-1.31-.427c-6.098-2.472-9.197-9.803-6.906-16.387ZM25.828 0c-.775.808-1.703 1.782-2.16 2.222a15.28 15.28 0 0 0-2.303-1.164c-6.94-2.805-14.25.368-18.275 6.274C.984 10.718-.26 14.889.046 19.179c0 0 .01 8.068 6.852 12.821.556-.832 1.265-1.901 1.734-2.59.764.475 1.572.903 2.423 1.247 7.855 3.173 16.562-.879 19.41-9.042 0 0 2.083-4.98 1.396-10.421 0 0-.535-7.344-6.034-11.194Z"/></svg>
